!!!OTL: STAND ICH AUF HOHEM BERGE
!!!ARE: Europa, Mitteleuropa, Deutschland
!!!SCT: E0089H
!!!YEM: Copyright 1995, estate of Helmut Schaffrath.
**kern
*ICvox
*Ivox
*M2/4
*k[f#]
*G:
{8d
=1
8b
8g
8dd
8b
=2
4b
8a}
{8a
=3
8b
8g
8dd
8b
=4
4a
8r}
{16b
16cc
=5
8dd
8dd
8dd
16dd
16ee
=6
8dd
8b
4g}
=7
{4cc
4ee
=8
8dd
8b
8g}
{8b
=9
8dd
8b
8a
16a
16b
=10
4g
8r}
==
!!!AGN: erzaehlendes Volks - Lied, Sage, Liebe, Leid, Ballade ?
!!!ONB: ESAC (Essen Associative Code) Database: ERK1
!!!AMT: simple duple
!!!AIN: vox
!!!EED: Helmut Schaffrath
!!!EEV: 1.0
*-
